src/main/resources/icons/RustIcons/targetBin.svg

<svg width="16" height="16" viewBox="0 0 16 16" fill="none" xmlns="http://www.w3.org/2000/svg">
<path fill-rule="evenodd" clip-rule="evenodd" d="M14.3264 11C14.7583 10.0907 15 9.0736 15 8C15 4.13401 11.866 1 8 1C4.13401 1 1 4.13401 1 8C1 11.171 3.10851 13.8496 6 14.7101V13.6586C3.66962 12.8349 2 10.6124 2 8C2 4.68629 4.68629 2 8 2C11.3137 2 14 4.68629 14 8C14 9.09286 13.7078 10.1175 13.1973 11H14.3264Z" fill="#9AA7B0" fill-opacity="0.8"/>
<path fill-rule="evenodd" clip-rule="evenodd" d="M12.0004 11C12.6281 10.1643 13 9.12561 13 8C13 5.23858 10.7614 3 8 3C5.23858 3 3 5.23858 3 8C3 10.0503 4.2341 11.8124 6 12.584V11.4649C4.8044 10.7733 4 9.48056 4 8C4 5.79086 5.79086 4 8 4C10.2091 4 12 5.79086 12 8C12 9.19469 11.4762 10.2671 10.6458 11H12.0004Z" fill="#9AA7B0" fill-opacity="0.8"/>
<path fill-rule="evenodd" clip-rule="evenodd" d="M11 8C11 9.65685 9.65685 11 8 11C6.34315 11 5 9.65685 5 8C5 6.34315 6.34315 5 8 5C9.65685 5 11 6.34315 11 8Z" fill="#9AA7B0" fill-opacity="0.8"/>
<path fill-rule="evenodd" clip-rule="evenodd" d="M10.735 14.006C10.735 14.952 11.07 15.441 11.5 15.441C11.967 15.441 12.258 14.971 12.258 14.042C12.258 13.144 11.98 12.56 11.506 12.56C11.089 12.56 10.735 13.041 10.735 14.006M13 13.97C13 15.22 12.474 16 11.474 16C10.518 16 10.006 15.191 10 14.012C10 12.803 10.55 12 11.525 12C12.532 12 13 12.833 13 13.97" fill="#40B6E0"/>
<path fill-rule="evenodd" clip-rule="evenodd" d="M14.845 12.683H14.833L14.125 13.052L14 12.48L14.947 12H15.554V16H14.845V12.683Z" fill="#40B6E0"/>
<path fill-rule="evenodd" clip-rule="evenodd" d="M7.845 12.683H7.833L7.125 13.052L7 12.48L7.947 12H8.554V16H7.845V12.683Z" fill="#40B6E0"/>
</svg>

<svg width="16" height="16" viewBox="0 0 16 16" fill="none" xmlns="http://www.w3.org/2000/svg"><rect id="frame" width="16" height="16" fill="none"/><path fill-rule="evenodd" clip-rule="evenodd" d="M14.326 11A7 7 0 1 0 6 14.71V13.66A6 6 0 1 1 13.197 11h1.13z" fill="#9AA7B0" fill-opacity=".8"/><path fill-rule="evenodd" clip-rule="evenodd" d="M12 11a5 5 0 1 0-6 1.584v-1.12A4 4 0 1 1 10.646 11H12z" fill="#9AA7B0" fill-opacity=".8"/><path fill-rule="evenodd" clip-rule="evenodd" d="M11 8a3 3 0 1 1-6 0 3 3 0 0 1 6 0z" fill="#9AA7B0" fill-opacity=".8"/><path fill-rule="evenodd" clip-rule="evenodd" d="M10.735 14.006c0 .946.335 1.435.765 1.435.467 0 .758-.47.758-1.399 0-.898-.278-1.482-.752-1.482-.417 0-.771.481-.771 1.446M13 13.97c0 1.25-.526 2.03-1.526 2.03-.956 0-1.468-.809-1.474-1.988 0-1.209.55-2.012 1.525-2.012 1.007 0 1.475.833 1.475 1.97" fill="#40B6E0"/><path fill-rule="evenodd" clip-rule="evenodd" d="M14.845 12.683h-.012l-.708.369L14 12.48l.947-.48h.607v4h-.709v-3.317z" fill="#40B6E0"/><path fill-rule="evenodd" clip-rule="evenodd" d="M7.845 12.683h-.012l-.708.369L7 12.48l.947-.48h.607v4h-.709v-3.317z" fill="#40B6E0"/></svg>
